teeny/solid/print.svg

<svg width="15" height="15" viewBox="0 0 15 15" fill="none" xmlns="http://www.w3.org/2000/svg">
<path d="M3 1.5C3 0.671573 3.67157 0 4.5 0H10.5C11.3284 0 12 0.671573 12 1.5V5H3V1.5Z" fill="black"/>
<path d="M1.5 6C0.671573 6 0 6.67157 0 7.5V11.5C0 12.3284 0.671573 13 1.5 13H2V9H13V13H13.5C14.3284 13 15 12.3284 15 11.5V7.5C15 6.67157 14.3284 6 13.5 6H1.5Z" fill="black"/>
<path d="M3 10H12V15H3V10Z" fill="black"/>
</svg>

<svg viewBox="0 0 15 15" xmlns="http://www.w3.org/2000/svg"><g><path d="M3 1.5C3 .67 3.67 0 4.5 0h6c.82 0 1.5.67 1.5 1.5V5H3V1.5Z"/><path d="M1.5 6C.67 6 0 6.67 0 7.5v4c0 .82.67 1.5 1.5 1.5H2V9h11v4h.5c.82 0 1.5-.68 1.5-1.5v-4c0-.83-.68-1.5-1.5-1.5h-12Z"/><path d="M3 10h9v5H3v-5Z"/></g></svg>
